tools/download-figma-icons/icons/outlined-medium/lkw-with-box.svg

<svg width="24" height="24" viewBox="0 0 24 24" fill="none" xmlns="http://www.w3.org/2000/svg">
<path fill-rule="evenodd" clip-rule="evenodd" d="M23.9276 11.6751C23.928 11.6781 23.9284 11.6811 23.9295 11.6837L23.9287 11.6845C23.9722 11.7797 24 11.8832 24 11.995V15.7451C24 16.5581 23.313 17.2451 22.5 17.2451H21.7117C21.5279 18.5142 20.4434 19.4952 19.1248 19.4952C17.8063 19.4952 16.7218 18.5142 16.538 17.2451H7.97875C7.79724 18.5172 6.71196 19.5012 5.39117 19.5012C4.07038 19.5012 2.98509 18.5164 2.80359 17.2451H1.4873C0.667521 17.2451 0 16.5814 0 15.7654V5.9798C0 5.16377 0.667521 4.5 1.4873 4.5H14.2512C15.0785 4.5 15.7512 5.16377 15.7512 5.9798V6.74482H20.5911C21.1507 6.74482 21.6554 7.04108 21.9082 7.51884L23.9257 11.6665C23.9269 11.6691 23.9272 11.6721 23.9276 11.6751ZM18.7506 11.2442H22.0522L20.5701 8.19762L18.7506 8.21412V11.2442ZM14.2504 5.9798L1.4873 6.00005L1.50005 15.7654L3.51611 15.7451H14.2504V5.9798ZM4.33364 17.2444C4.48739 17.6832 4.90065 18.0004 5.39117 18.0004C5.88168 18.0004 6.29495 17.6832 6.4487 17.2444H4.33364ZM18.0006 16.8694C18.0006 17.4897 18.5053 17.9944 19.1256 17.9944C19.7459 17.9944 20.2506 17.4897 20.2506 16.8694C20.2506 16.2491 19.7459 15.7444 19.1256 15.7444C18.5053 15.7444 18.0006 16.2491 18.0006 16.8694ZM19.1256 14.2443C20.1689 14.2443 21.0644 14.8608 21.4874 15.7444V15.7451H22.5007V12.745H18.0006C17.5858 12.745 17.2505 12.4097 17.2505 11.995V8.22837L15.7505 8.24187V15.7444H16.7638C17.1868 14.8608 18.0823 14.2443 19.1256 14.2443ZM4.50015 13.494V11.244C4.08539 11.244 3.75013 10.9087 3.75013 10.4939V8.24386C3.75013 7.8291 4.08539 7.49384 4.50015 7.49384H11.2504C11.6651 7.49384 12.0004 7.8291 12.0004 8.24386V10.4939C12.0004 10.9087 11.6651 11.244 11.2504 11.244V13.494C11.2504 13.9088 10.9151 14.244 10.5003 14.244H5.25017C4.83541 14.244 4.50015 13.9088 4.50015 13.494ZM6.0002 12.744H9.75031V11.244H6.0002V12.744ZM10.5003 8.99389H5.25017V9.74391H10.5003V8.99389Z" fill="black"/>
</svg>

<svg xmlns="http://www.w3.org/2000/svg" width="24" height="24" fill="none" viewBox="0 0 24 24"><path fill="currentColor" fill-rule="evenodd" d="M23.928 11.675q0 .005.002.009h-.001a.74.74 0 0 1 .071.311v3.75c0 .813-.687 1.5-1.5 1.5h-.788a2.62 2.62 0 0 1-2.587 2.25 2.62 2.62 0 0 1-2.587-2.25h-8.56a2.62 2.62 0 0 1-2.587 2.256 2.62 2.62 0 0 1-2.587-2.256H1.487c-.82 0-1.487-.664-1.487-1.48V5.98C0 5.164.668 4.5 1.487 4.5h12.764c.828 0 1.5.664 1.5 1.48v.765h4.84c.56 0 1.064.296 1.317.774l2.018 4.147zm-5.177-.43h3.301L20.57 8.197l-1.82.016zm-4.5-5.265L1.486 6l.013 9.765 2.016-.02H14.25zM4.333 17.244c.153.44.567.756 1.057.756s.904-.317 1.058-.756zM18 16.87a1.126 1.126 0 0 0 2.25 0c0-.62-.505-1.125-1.125-1.125S18 16.25 18 16.87m1.125-2.625c1.043 0 1.938.617 2.361 1.5v.001H22.5v-3H18a.75.75 0 0 1-.75-.75V8.228l-1.5.014v7.502h1.013a2.62 2.62 0 0 1 2.362-1.5M4.5 13.494v-2.25a.75.75 0 0 1-.75-.75v-2.25a.75.75 0 0 1 .75-.75h6.75a.75.75 0 0 1 .75.75v2.25a.75.75 0 0 1-.75.75v2.25a.75.75 0 0 1-.75.75H5.25a.75.75 0 0 1-.75-.75m1.5-.75h3.75v-1.5H6zm4.5-3.75H5.25v.75h5.25z" clip-rule="evenodd"/></svg>
